packages/tokens/icons/boxDown/size32Px.svg

<svg viewBox="0 0 32 32" fill="none" xmlns="http://www.w3.org/2000/svg" width="1em" height="1em"><path d="M16 4.50002L16 15.75M11.5 12L16 16.5L20.5 12" stroke="currentColor" stroke-linecap="round" stroke-linejoin="round"/><path d="M12 8.5H8.5C7.39543 8.5 6.5 9.39543 6.5 10.5V25.5C6.5 26.6046 7.39543 27.5 8.5 27.5H23.5C24.6046 27.5 25.5 26.6046 25.5 25.5V10.5C25.5 9.39543 24.6046 8.5 23.5 8.5H19.5" stroke="currentColor" stroke-linecap="round"/></svg>

<svg xmlns="http://www.w3.org/2000/svg" fill="none" viewBox="0 0 32 32" width="1em" height="1em"><path stroke="currentColor" stroke-linecap="round" stroke-linejoin="round" d="M16 4.5v11.25M11.5 12l4.5 4.5 4.5-4.5"/><path stroke="currentColor" stroke-linecap="round" d="M12 8.5H8.5a2 2 0 0 0-2 2v15a2 2 0 0 0 2 2h15a2 2 0 0 0 2-2v-15a2 2 0 0 0-2-2h-4"/></svg>
